www/assets/icons/phone_forwarded.svg

<svg xmlns="http://www.w3.org/2000/svg" width="24" height="24" viewBox="0 0 24 24" fill='currentColor'><path d="m17 12 5-5-5-5v3h-4v4h4zm2 4.5c-1.25 0-2.45-.2-3.57-.57a1.02 1.02 0 0 0-1.02.24l-2.2 2.2a15.05 15.05 0 0 1-6.59-6.59l2.2-2.21a.96.96 0 0 0 .25-1A11.4 11.4 0 0 1 7.5 5c0-.55-.45-1-1-1H3c-.55 0-1 .45-1 1 0 9.39 7.61 17 17 17 .55 0 1-.45 1-1v-3.5c0-.55-.45-1-1-1"/></svg>

<svg width="24" height="24" viewBox="0 0 24 24" xmlns="http://www.w3.org/2000/svg" fill='currentColor'><path d="M17 12L22 7L17 2V5H13V9H17V12ZM19 16.5C17.75 16.5 16.55 16.3 15.43 15.93C15.08 15.82 14.69 15.9 14.41 16.17L12.21 18.37C9.38 16.93 7.06 14.62 5.62 11.78L7.82 9.57C8.1 9.31 8.18 8.92 8.07 8.57C7.7 7.45 7.5 6.25 7.5 5C7.5 4.45 7.05 4 6.5 4H3C2.45 4 2 4.45 2 5C2 14.39 9.61 22 19 22C19.55 22 20 21.55 20 21V17.5C20 16.95 19.55 16.5 19 16.5Z"/></svg>
